icons/svg/photo.svg

<svg width="24" height="24" viewBox="0 0 24 24" fill="none" xmlns="http://www.w3.org/2000/svg">
<path d="M20.3302 17.6569C20.4406 17.2906 20.5 16.9023 20.5 16.5V7.5C20.5 5.29086 18.7091 3.5 16.5 3.5H7.5C5.29086 3.5 3.5 5.29086 3.5 7.5V16.5C3.5 16.5236 3.5002 16.5472 3.50061 16.5707M20.3302 17.6569L20.2424 17.5533L17.7764 14.5768C16.9793 13.6148 15.5051 13.6109 14.703 14.5687L13.3908 16.1355L13.1774 16.3964M20.3302 17.6569C19.8447 19.2662 18.3727 20.4478 16.6173 20.4983M16.6173 20.4983C16.5783 20.4994 16.5392 20.5 16.5 20.5H7.5C5.31448 20.5 3.53834 18.7472 3.50061 16.5707M16.6173 20.4983L16.5239 20.3922L13.1774 16.3964M3.50061 16.5707L3.67841 16.3699L6.88354 12.5429C7.68292 11.5884 9.15075 11.5884 9.95013 12.5429L13.1774 16.3964" stroke="currentColor" stroke-width="1.5" stroke-linecap="round" stroke-linejoin="round"/>
<ellipse cx="15.0909" cy="8.9091" rx="1.5" ry="1.49998" fill="currentColor"/>
</svg>

<svg xmlns="http://www.w3.org/2000/svg" width="24" height="24" fill="none" viewBox="0 0 24 24"><path stroke="currentColor" stroke-linecap="round" stroke-linejoin="round" stroke-width="1.5" d="M20.33 17.657c.11-.366.17-.755.17-1.157v-9a4 4 0 0 0-4-4h-9a4 4 0 0 0-4 4v9.07m16.83 1.087-.088-.104-2.466-2.976a2 2 0 0 0-3.073-.008l-1.312 1.566-.214.261m7.153 1.26a4 4 0 0 1-3.713 2.842m0 0-.117.002h-9a4 4 0 0 1-4-3.93m13.117 3.928-.093-.106-3.347-3.996m-9.676.175.177-.201 3.206-3.827a2 2 0 0 1 3.066 0l3.227 3.853"/><circle cx="15.091" cy="8.909" r="1.5" fill="currentColor"/></svg>
